X:1087
T:La Visite.
M:2/4
L:1/8
Q:1/4=120
P:ABA
I: || ||
N:Aird uses a da capo
Z:Jack Campin * www.campin.me.uk * 2009
K:C
P:A
cdce|fa a2|ge f/e/d/c/|BddG|c`dce|fa a2|gc    e/d/c/d/|ec c2||
P:B
efea|cA A2|de`dg      |BGG2|g^fgd|eg d2|gB {B}A```G/A/|BG G2||

